svg/color/hum.svg

<?xml version="1.0" encoding="UTF-8" ?>
<!DOCTYPE svg PUBLIC "-//W3C//DTD SVG 1.1//EN" "http://www.w3.org/Graphics/SVG/1.1/DTD/svg11.dtd">
<svg width="250pt" height="250pt" viewBox="0 0 250 250" version="1.1" xmlns="http://www.w3.org/2000/svg">
<g id="#fefefeff">
<path fill="#fefefe" opacity="1.00" d=" M 0.00 0.00 L 250.00 0.00 L 250.00 250.00 L 0.00 250.00 L 0.00 0.00 M 54.37 9.37 C 37.31 13.17 28.55 35.63 39.28 49.71 C 49.79 67.52 81.19 63.60 86.01 43.01 C 93.08 24.12 73.94 3.09 54.37 9.37 M 169.47 49.77 C 168.66 51.13 170.57 53.37 172.02 52.75 C 179.59 62.79 197.67 64.28 206.78 55.46 C 208.45 55.95 211.61 53.96 210.69 52.01 C 225.62 37.67 213.86 8.56 192.99 8.99 C 171.76 5.12 156.06 33.56 169.47 49.77 M 31.00 84.07 C 31.09 85.47 31.27 88.29 31.36 89.69 C 30.48 136.10 31.27 182.58 31.00 229.01 C 29.31 231.36 31.09 235.59 33.99 235.01 C 52.97 234.98 71.96 235.08 90.94 234.94 C 91.09 211.25 90.96 187.56 91.02 163.88 C 113.79 171.77 139.08 172.16 161.77 163.67 C 162.46 177.54 161.44 191.45 162.39 205.31 C 161.27 214.71 162.20 224.28 162.14 233.73 C 163.99 236.69 168.63 233.59 171.00 235.05 C 187.69 234.48 204.98 235.97 221.31 234.32 C 223.48 223.27 221.37 210.73 221.73 199.26 C 222.23 162.77 222.11 126.25 221.76 89.75 C 221.82 88.33 221.95 85.49 222.01 84.07 C 202.12 84.03 182.23 83.76 162.36 84.20 C 158.27 95.02 149.90 103.93 138.87 107.85 C 120.22 115.13 98.25 104.02 91.09 85.84 C 91.06 85.39 90.99 84.49 90.96 84.04 C 70.98 83.98 50.99 83.93 31.00 84.07 Z" />
</g>
<g id="#fa9e20ff">
<path fill="#fa9e20" opacity="1.00" d=" M 54.37 9.37 C 73.94 3.09 93.08 24.12 86.01 43.01 C 81.19 63.60 49.79 67.52 39.28 49.71 C 28.55 35.63 37.31 13.17 54.37 9.37 Z" />
<path fill="#fa9e20" opacity="1.00" d=" M 31.00 84.07 C 50.99 83.93 70.98 83.98 90.96 84.04 C 90.99 84.49 91.06 85.39 91.09 85.84 C 90.88 111.57 91.09 137.30 90.95 163.04 C 66.35 154.51 48.75 133.88 36.00 112.01 C 30.35 105.89 32.52 97.20 31.36 89.69 C 31.27 88.29 31.09 85.47 31.00 84.07 Z" />
</g>
<g id="#27bffaff">
<path fill="#27bffa" opacity="1.00" d=" M 169.47 49.77 C 156.06 33.56 171.76 5.12 192.99 8.99 C 213.86 8.56 225.62 37.67 210.69 52.01 C 209.01 52.69 207.45 53.69 206.78 55.46 C 197.67 64.28 179.59 62.79 172.02 52.75 C 172.05 51.22 170.86 50.16 169.47 49.77 Z" />
<path fill="#27bffa" opacity="1.00" d=" M 162.36 84.20 C 182.23 83.76 202.12 84.03 222.01 84.07 C 221.95 85.49 221.82 88.33 221.76 89.75 C 223.08 99.80 215.85 107.07 212.95 115.99 C 202.70 137.81 183.76 154.32 161.77 163.67 C 139.08 172.16 113.79 171.77 91.02 163.88 L 90.95 163.04 C 91.09 137.30 90.88 111.57 91.09 85.84 C 98.25 104.02 120.22 115.13 138.87 107.85 C 149.90 103.93 158.27 95.02 162.36 84.20 Z" />
</g>
<g id="#7278e1ff">
<path fill="#7278e1" opacity="1.00" d=" M 169.47 49.77 C 170.86 50.16 172.05 51.22 172.02 52.75 C 170.57 53.37 168.66 51.13 169.47 49.77 Z" />
<path fill="#7278e1" opacity="1.00" d=" M 206.78 55.46 C 207.45 53.69 209.01 52.69 210.69 52.01 C 211.61 53.96 208.45 55.95 206.78 55.46 Z" />
<path fill="#7278e1" opacity="1.00" d=" M 212.95 115.99 C 215.85 107.07 223.08 99.80 221.76 89.75 C 222.11 126.25 222.23 162.77 221.73 199.26 C 221.29 194.87 221.29 190.46 220.80 186.09 C 201.56 185.97 182.31 185.83 163.09 186.11 C 162.67 192.49 163.68 199.00 162.39 205.31 C 161.44 191.45 162.46 177.54 161.77 163.67 C 183.76 154.32 202.70 137.81 212.95 115.99 Z" />
</g>
<g id="#fc6351ff">
<path fill="#fc6351" opacity="1.00" d=" M 31.36 89.69 C 32.52 97.20 30.35 105.89 36.00 112.01 C 48.75 133.88 66.35 154.51 90.95 163.04 L 91.02 163.88 C 90.96 187.56 91.09 211.25 90.94 234.94 C 71.96 235.08 52.97 234.98 33.99 235.01 C 31.09 235.59 29.31 231.36 31.00 229.01 C 31.27 182.58 30.48 136.10 31.36 89.69 Z" />
</g>
<g id="#8d5cd8ff">
<path fill="#8d5cd8" opacity="1.00" d=" M 163.09 186.11 C 182.31 185.83 201.56 185.97 220.80 186.09 C 221.29 190.46 221.29 194.87 221.73 199.26 C 221.37 210.73 223.48 223.27 221.31 234.32 C 204.98 235.97 187.69 234.48 171.00 235.05 C 168.63 233.59 163.99 236.69 162.14 233.73 C 162.20 224.28 161.27 214.71 162.39 205.31 C 163.68 199.00 162.67 192.49 163.09 186.11 Z" />
</g>
</svg>

<?xml version="1.0" encoding="utf-8"?>
<!-- Generator: Adobe Illustrator 26.0.3, SVG Export Plug-In . SVG Version: 6.00 Build 0)  -->
<svg version="1.1" id="Layer_1" xmlns="http://www.w3.org/2000/svg" xmlns:xlink="http://www.w3.org/1999/xlink" x="0px" y="0px"
	 viewBox="0 0 250 250" style="enable-background:new 0 0 250 250;" xml:space="preserve">
<style type="text/css">
	.st0{fill:#FA9E20;}
	.st1{fill:#27BFFA;}
	.st2{fill:#7278E1;}
	.st3{fill:#FC6351;}
	.st4{fill:#8D5CD8;}
</style>
<g id="_x23_fa9e20ff">
	<path class="st0" d="M54.4,9.4C73.9,3.1,93.1,24.1,86,43c-4.8,20.6-36.2,24.5-46.7,6.7C28.5,35.6,37.3,13.2,54.4,9.4z"/>
	<path class="st0" d="M31,84.1c20-0.1,40-0.1,60,0c0,0.4,0.1,1.3,0.1,1.8c-0.2,25.7,0,51.5-0.1,77.2c-24.6-8.5-42.2-29.2-54.9-51
		c-5.6-6.1-3.5-14.8-4.6-22.3C31.3,88.3,31.1,85.5,31,84.1z"/>
</g>
<g id="_x23_27bffaff">
	<path class="st1" d="M169.5,49.8C156.1,33.6,171.8,5.1,193,9c20.9-0.4,32.6,28.7,17.7,43c-1.7,0.7-3.2,1.7-3.9,3.5
		c-9.1,8.8-27.2,7.3-34.8-2.7C172.1,51.2,170.9,50.2,169.5,49.8z"/>
	<path class="st1" d="M162.4,84.2c19.9-0.4,39.8-0.2,59.6-0.1c-0.1,1.4-0.2,4.3-0.2,5.7c1.3,10.1-5.9,17.3-8.8,26.2
		c-10.2,21.8-29.2,38.3-51.2,47.7c-22.7,8.5-48,8.1-70.8,0.2l-0.1-0.8c0.1-25.7-0.1-51.5,0.1-77.2c7.2,18.2,29.1,29.3,47.8,22
		C149.9,103.9,158.3,95,162.4,84.2z"/>
</g>
<g id="_x23_7278e1ff">
	<path class="st2" d="M169.5,49.8c1.4,0.4,2.6,1.5,2.6,3C170.6,53.4,168.7,51.1,169.5,49.8z"/>
	<path class="st2" d="M206.8,55.5c0.7-1.8,2.2-2.8,3.9-3.5C211.6,54,208.4,56,206.8,55.5z"/>
	<path class="st2" d="M212.9,116c2.9-8.9,10.1-16.2,8.8-26.2c0.4,36.5,0.5,73,0,109.5c-0.4-4.4-0.4-8.8-0.9-13.2
		c-19.2-0.1-38.5-0.3-57.7,0c-0.4,6.4,0.6,12.9-0.7,19.2c-0.9-13.9,0.1-27.8-0.6-41.6C183.8,154.3,202.7,137.8,212.9,116z"/>
</g>
<g id="_x23_fc6351ff">
	<path class="st3" d="M31.4,89.7c1.2,7.5-1,16.2,4.6,22.3c12.8,21.9,30.3,42.5,54.9,51l0.1,0.8c-0.1,23.7,0.1,47.4-0.1,71.1
		c-19,0.1-38,0-57,0.1c-2.9,0.6-4.7-3.6-3-6C31.3,182.6,30.5,136.1,31.4,89.7z"/>
</g>
<g id="_x23_8d5cd8ff">
	<path class="st4" d="M163.1,186.1c19.2-0.3,38.5-0.1,57.7,0c0.5,4.4,0.5,8.8,0.9,13.2c-0.4,11.5,1.8,24-0.4,35.1
		c-16.3,1.6-33.6,0.2-50.3,0.7c-2.4-1.5-7,1.6-8.9-1.3c0.1-9.4-0.9-19,0.2-28.4C163.7,199,162.7,192.5,163.1,186.1z"/>
</g>
</svg>
